img/element_YOCTOL.AI_horizontal_S.svg

<svg width="104" height="40" viewBox="0 0 104 40" fill="none" xmlns="http://www.w3.org/2000/svg">
<path fill-rule="evenodd" clip-rule="evenodd" d="M11.4285 0L11.4296 38.2254C10.0833 38.9416 8.6656 39.508 7.20328 39.913C7.01419 39.9707 6.81868 40 6.62124 40C5.49577 40 4.58019 39.0652 4.58019 37.9161C4.58019 37.243 4.89292 36.6215 5.42245 36.2296C5.43443 36.2205 5.44653 36.2116 5.45862 36.2027C5.94254 35.853 6.41509 35.4744 6.86381 35.0768C6.88087 35.0606 6.89853 35.0448 6.91631 35.0294C6.92055 35.0257 6.92539 35.0214 6.93035 35.0169C6.92962 35.0163 6.92914 35.0157 6.92853 35.0151C6.92708 35.0137 6.90833 34.9951 6.89962 34.9869C4.74823 32.9765 3.05293 30.5857 1.86067 27.8809C0.626072 25.0799 0 22.0906 0 18.996C0 15.1241 1.01248 11.3235 2.92808 8.00526C4.7867 4.78594 7.4433 2.09516 10.6108 0.224067C10.8638 0.0747301 11.1461 0 11.4285 0Z" fill="url(#paint0_linear)"/>
<path fill-rule="evenodd" clip-rule="evenodd" d="M7.94383 39.755C7.69838 39.8331 7.45152 39.9066 7.20337 39.9755L7.7516 39.8152L7.94383 39.755ZM8.48054 39.5762C8.43551 39.5919 8.39042 39.6074 8.34528 39.6228L8.34554 39.6227L8.48054 39.5762ZM9.10939 39.3456C9.03106 39.3757 8.95257 39.4054 8.8739 39.4346L8.87443 39.4344L9.10939 39.3456ZM9.63976 39.1329C9.57539 39.1598 9.5109 39.1863 9.44628 39.2125L9.44647 39.2124L9.63976 39.1329ZM10.236 38.8734C10.1481 38.9133 10.06 38.9525 9.97171 38.9912L9.97172 38.9912L10.236 38.8734ZM10.7496 38.6318C10.6668 38.6721 10.5838 38.7119 10.5006 38.7511L10.5005 38.7511L10.7496 38.6318ZM11.2685 38.3701C11.1946 38.4087 11.1205 38.4468 11.0462 38.4844L11.2685 38.3701ZM11.4286 0L11.5978 0.00898065C11.8227 0.0329277 12.0439 0.104761 12.2463 0.224417C15.4138 2.09844 18.0705 4.79343 19.929 8.01779C21.8446 11.3414 22.8572 15.1478 22.8572 19.0257C22.8572 22.9034 21.8446 26.7099 19.929 30.0333C18.0704 33.2578 15.4138 35.9528 12.2463 37.8268L12.2163 37.8441C11.9571 37.9968 11.695 38.1438 11.4302 38.2849L11.4286 0Z" fill="url(#paint1_linear)"/>
<path fill-rule="evenodd" clip-rule="evenodd" d="M11.4307 38.0509L11.4286 0C11.7116 0 11.9946 0.0743901 12.2482 0.223047C15.4231 2.08563 18.086 4.76416 19.9488 7.96884C20.3967 8.73931 20.7953 9.5359 21.1433 10.3534L11.4296 19.999L11.4286 0L11.4307 38.0509Z" fill="#ECF6FE"/>
<path d="M56.5978 15.4312C57.0717 15.4312 57.4558 15.8185 57.4558 16.2963C57.4558 16.7741 57.0717 17.1614 56.5978 17.1614H54.1344C53.5144 17.1614 53.0995 17.2535 52.7457 17.4443C52.4291 17.615 52.1858 17.8603 52.0165 18.1795C51.8273 18.5363 51.7359 18.9546 51.7359 19.5798V22.9942C51.7359 23.6194 51.8273 24.0378 52.0165 24.3945C52.1858 24.7137 52.4291 24.959 52.7457 25.1297C53.0553 25.2966 53.4116 25.388 53.9113 25.4083L54.1344 25.4126H56.5978C57.0717 25.4126 57.4558 25.7999 57.4558 26.2777C57.4558 26.7188 57.1285 27.0827 56.7055 27.1361L56.5978 27.1428H54.1344C53.2469 27.1428 52.5557 26.9894 51.9364 26.6554C51.3208 26.3235 50.8326 25.8312 50.5034 25.2105C50.2144 24.6656 50.0617 24.0655 50.0274 23.3269L50.0212 23.1378L50.0214 23.1564C50.0205 23.1396 50.02 23.1227 50.02 23.1057V19.4683L50.0214 19.4181L50.0202 19.5138L50.0257 19.2887C50.056 18.5309 50.209 17.9186 50.5034 17.3635C50.8326 16.7428 51.3208 16.2505 51.9364 15.9186C52.5557 15.5846 53.2469 15.4312 54.1344 15.4312H56.5978ZM44.0466 15.1428C44.9341 15.1428 45.6253 15.2963 46.2446 15.6302C46.8602 15.9622 47.3484 16.4545 47.6776 17.0752C48.0088 17.6996 48.161 18.3965 48.161 19.2914V22.8173C48.161 23.7122 48.0088 24.4091 47.6776 25.0336C47.3484 25.6543 46.8602 26.1466 46.2446 26.4785C45.6253 26.8125 44.9341 26.9659 44.0466 26.9659H43.6957C42.8081 26.9659 42.1169 26.8125 41.4976 26.4785C40.8821 26.1466 40.3938 25.6543 40.0646 25.0336C39.7334 24.4091 39.5812 23.7122 39.5812 22.8173V19.2914C39.5812 18.3965 39.7334 17.6996 40.0646 17.0752C40.3938 16.4545 40.8821 15.9622 41.4976 15.6302C42.1169 15.2963 42.8081 15.1428 43.6957 15.1428H44.0466ZM96.2259 15.1428C98.2444 15.1428 99.4021 16.4354 99.8482 18.4261C100.026 19.2215 100.069 19.8934 100.069 20.8747V26.1008C100.069 26.5786 99.6848 26.9659 99.211 26.9659C98.7371 26.9659 98.353 26.5786 98.353 26.1008L98.3522 23.2168H93.7762L93.7771 25.9566C93.7771 26.4344 93.393 26.8217 92.9191 26.8217C92.4453 26.8217 92.0611 26.4344 92.0611 25.9566V20.8747C92.0611 19.8934 92.1037 19.2215 92.2819 18.4261C92.7279 16.4354 93.8857 15.1428 95.9042 15.1428H96.2259ZM73.504 15.1428C74.3915 15.1428 75.0827 15.2963 75.702 15.6302C76.3176 15.9622 76.8058 16.4545 77.135 17.0752C77.4662 17.6996 77.6184 18.3965 77.6184 19.2914V22.8173C77.6184 23.7122 77.4662 24.4091 77.135 25.0336C76.8058 25.6543 76.3176 26.1466 75.702 26.4785C75.0827 26.8125 74.3915 26.9659 73.504 26.9659H73.153C72.2655 26.9659 71.5743 26.8125 70.955 26.4785C70.3394 26.1466 69.8512 25.6543 69.522 25.0336C69.1908 24.4091 69.0386 23.7122 69.0386 22.8173V19.2914C69.0386 18.3965 69.1908 17.6996 69.522 17.0752C69.8512 16.4545 70.3394 15.9622 70.955 15.6302C71.5743 15.2963 72.2655 15.1428 73.153 15.1428H73.504ZM67.1796 15.1428C67.6535 15.1428 68.0376 15.5301 68.0376 16.0079C68.0376 16.449 67.7103 16.8129 67.2873 16.8663L67.1796 16.873L64.2462 16.8728L64.2468 26.1008C64.2468 26.5418 63.9194 26.9058 63.4964 26.9592L63.3888 26.9659C62.9514 26.9659 62.5904 26.6359 62.5375 26.2093L62.5308 26.1008L62.5302 16.8728L59.7438 16.873C59.2699 16.873 58.8858 16.4857 58.8858 16.0079C58.8858 15.5669 59.2131 15.2029 59.6362 15.1496L59.7438 15.1428H67.1796ZM103.142 15.1428C103.579 15.1428 103.94 15.4728 103.993 15.8994L104 16.0079V26.1008C104 26.5786 103.616 26.9659 103.142 26.9659C102.705 26.9659 102.344 26.6359 102.291 26.2093L102.284 26.1008V16.0079C102.284 15.5301 102.668 15.1428 103.142 15.1428ZM88.9152 24.659C89.547 24.659 90.0592 25.1754 90.0592 25.8124C90.0592 26.4495 89.547 26.9659 88.9152 26.9659C88.2834 26.9659 87.7712 26.4495 87.7712 25.8124C87.7712 25.1754 88.2834 24.659 88.9152 24.659ZM37.9761 15.5293C38.3639 15.7333 38.5325 16.1943 38.3838 16.5971L38.3399 16.6965L34.9882 23.1728L34.9322 26.1174C34.9231 26.5951 34.5316 26.9749 34.0579 26.9657C33.6206 26.9573 33.266 26.6203 33.2212 26.1928L33.2166 26.0842L33.2722 23.1178L29.8185 16.7094C29.6097 16.3219 29.7249 15.8445 30.0713 15.5939L30.1627 15.5362C30.547 15.3256 31.0204 15.4418 31.269 15.7911L31.3262 15.8832L34.1319 21.0884L36.8186 15.8961C37.0378 15.4725 37.556 15.3083 37.9761 15.5293ZM80.6214 15.1428C81.0588 15.1428 81.4197 15.4728 81.4726 15.8994L81.4793 16.0079V22.7058C81.4793 23.331 81.5707 23.7494 81.7599 24.1061C81.9292 24.4253 82.1725 24.6706 82.4891 24.8413C82.7987 25.0083 83.155 25.0997 83.6547 25.1199L83.8778 25.1242H85.1973C85.6711 25.1242 86.0552 25.5116 86.0552 25.9894C86.0552 26.4304 85.7279 26.7943 85.3049 26.8477L85.1973 26.8545H83.8778C82.9903 26.8545 82.2991 26.701 81.6798 26.367C81.0642 26.0351 80.576 25.5428 80.2468 24.9221C79.9524 24.367 79.7994 23.7547 79.769 22.997L79.7634 22.7058V16.0079C79.7634 15.5301 80.1475 15.1428 80.6214 15.1428ZM44.0466 16.873H43.6957C43.0756 16.873 42.6607 16.9652 42.3069 17.1559C41.9903 17.3266 41.747 17.572 41.5777 17.8911C41.3885 18.2479 41.2972 18.6663 41.2972 19.2914V22.8173C41.2972 23.4425 41.3885 23.8608 41.5777 24.2176C41.747 24.5368 41.9903 24.7821 42.3069 24.9528C42.6607 25.1436 43.0756 25.2357 43.6957 25.2357H44.0466C44.6666 25.2357 45.0815 25.1436 45.4353 24.9528C45.7519 24.7821 45.9952 24.5368 46.1645 24.2176C46.3537 23.8608 46.4451 23.4425 46.4451 22.8173V19.2914C46.4451 18.6663 46.3537 18.2479 46.1645 17.8911C45.9952 17.572 45.7519 17.3266 45.4353 17.1559C45.0815 16.9652 44.6666 16.873 44.0466 16.873ZM73.504 16.873H73.153C72.533 16.873 72.1181 16.9652 71.7643 17.1559C71.4477 17.3266 71.2044 17.572 71.0351 17.8911C70.8459 18.2479 70.7546 18.6663 70.7546 19.2914V22.8173C70.7546 23.4425 70.8459 23.8608 71.0351 24.2176C71.2044 24.5368 71.4477 24.7821 71.7643 24.9528C72.1181 25.1436 72.533 25.2357 73.153 25.2357H73.504C74.124 25.2357 74.5389 25.1436 74.8927 24.9528C75.2093 24.7821 75.4526 24.5368 75.6219 24.2176C75.8111 23.8608 75.9025 23.4425 75.9025 22.8173V19.2914C75.9025 18.6663 75.8111 18.2479 75.6219 17.8911C75.4526 17.572 75.2093 17.3266 74.8927 17.1559C74.5389 16.9652 74.124 16.873 73.504 16.873ZM96.2259 16.873H95.9042C94.8247 16.873 94.2438 17.5216 93.9557 18.8074C93.8133 19.4429 93.7771 20.0144 93.7771 20.8747L93.7762 21.4868H98.3522L98.353 20.8747C98.353 20.0144 98.3168 19.4429 98.1744 18.8074C97.8863 17.5216 97.3054 16.873 96.2259 16.873Z" fill="white"/>
<defs>
<linearGradient id="paint0_linear" x1="5.71479" y1="10.5079" x2="5.71479" y2="40" gradientUnits="userSpaceOnUse">
<stop stop-color="#13BDFF"/>
<stop offset="1" stop-color="#3F83FF"/>
</linearGradient>
<linearGradient id="paint1_linear" x1="15.0303" y1="9.36231" x2="15.0303" y2="39.9755" gradientUnits="userSpaceOnUse">
<stop stop-color="#D8EDFF"/>
<stop offset="1" stop-color="#8DC9FF"/>
</linearGradient>
</defs>
</svg>

<svg width="104" height="40" viewBox="0 0 104 40" fill="none" xmlns="http://www.w3.org/2000/svg"><path fill-rule="evenodd" clip-rule="evenodd" d="M11.428 0l.002 38.225a20.853 20.853 0 01-4.227 1.688 1.978 1.978 0 01-.582.087c-1.125 0-2.04-.935-2.04-2.084 0-.673.312-1.294.841-1.686.012-.01.025-.018.037-.027a18.208 18.208 0 001.471-1.186l-.001-.002-.03-.028a21.585 21.585 0 01-5.038-7.106A21.89 21.89 0 010 18.996c0-3.872 1.012-7.672 2.928-10.99A21.568 21.568 0 0110.611.223c.253-.15.535-.224.817-.224z" fill="url(#paint0_linear)"/><path fill-rule="evenodd" clip-rule="evenodd" d="M7.944 39.755c-.246.078-.492.152-.74.22l.548-.16.192-.06zm.537-.179l-.136.047.136-.047zm.628-.23l-.235.089.235-.09zm.53-.213l-.193.08.194-.08zm.597-.26c-.088.04-.176.08-.264.118l.264-.118zm.514-.241l-.25.12.25-.12zm.518-.262a9.285 9.285 0 01-.222.114l.223-.114zM11.428 0l.17.009c.225.024.446.096.648.215a21.584 21.584 0 017.683 7.794 22.067 22.067 0 012.928 11.008 22.06 22.06 0 01-2.928 11.007 21.584 21.584 0 01-7.683 7.794l-.03.017c-.259.153-.521.3-.786.44V0z" fill="url(#paint1_linear)"/><path fill-rule="evenodd" clip-rule="evenodd" d="M11.43 38.05V0c.283 0 .566.074.82.223a21.54 21.54 0 018.894 10.13L11.43 20l-.001-20 .002 38.05z" fill="#ECF6FE"/><path d="M56.598 15.431c.474 0 .858.388.858.865a.862.862 0 01-.858.865h-2.464c-.62 0-1.035.092-1.388.283a1.75 1.75 0 00-.73.736c-.189.356-.28.775-.28 1.4v3.414c0 .625.091 1.044.28 1.4.17.32.413.565.73.736.31.167.666.258 1.165.278l.223.005h2.464c.474 0 .858.387.858.865a.863.863 0 01-.75.858l-.108.007h-2.464c-.887 0-1.578-.154-2.198-.488a3.47 3.47 0 01-1.433-1.445c-.289-.544-.441-1.145-.476-1.883l-.006-.19v.02a.947.947 0 01-.001-.051v-3.638l.001-.05v.096l.005-.225c.03-.758.183-1.37.477-1.926a3.47 3.47 0 011.433-1.444c.62-.334 1.31-.488 2.198-.488h2.464zm-12.551-.288c.887 0 1.578.153 2.198.487a3.471 3.471 0 011.433 1.445c.33.625.483 1.322.483 2.216v3.526c0 .895-.152 1.592-.483 2.217a3.47 3.47 0 01-1.433 1.445c-.62.334-1.31.487-2.198.487h-.351c-.888 0-1.58-.154-2.198-.488a3.47 3.47 0 01-1.433-1.444c-.332-.625-.484-1.322-.484-2.217v-3.526c0-.895.152-1.591.484-2.216a3.472 3.472 0 011.433-1.445c.619-.334 1.31-.487 2.198-.487h.35zm52.179 0c2.018 0 3.176 1.292 3.622 3.283.178.796.221 1.467.221 2.449V26.1a.862.862 0 01-.858.865.862.862 0 01-.858-.865v-2.884h-4.577l.001 2.74a.862.862 0 01-.858.865.862.862 0 01-.858-.865v-5.082c0-.982.043-1.654.22-2.449.447-1.99 1.605-3.283 3.623-3.283h.322zm-22.722 0c.887 0 1.579.153 2.198.487a3.471 3.471 0 011.433 1.445c.331.625.483 1.322.483 2.216v3.526c0 .895-.152 1.592-.483 2.217a3.47 3.47 0 01-1.433 1.445c-.62.334-1.31.487-2.198.487h-.351c-.888 0-1.579-.154-2.198-.488a3.47 3.47 0 01-1.433-1.444c-.331-.625-.483-1.322-.483-2.217v-3.526c0-.895.152-1.591.483-2.216.33-.62.817-1.113 1.433-1.445.62-.334 1.31-.487 2.198-.487h.351zm-6.324 0c.473 0 .858.387.858.865a.863.863 0 01-.75.858l-.108.007h-2.934V26.1a.863.863 0 01-.75.858l-.107.007a.86.86 0 01-.852-.757l-.006-.108v-9.228h-2.787a.862.862 0 01-.858-.865c0-.441.327-.805.75-.858l.108-.007h7.436zm35.962 0a.86.86 0 01.851.756l.007.109V26.1a.861.861 0 01-.858.865.86.86 0 01-.851-.757l-.007-.108V16.008c0-.478.384-.865.858-.865zm-14.227 9.516c.632 0 1.144.516 1.144 1.153s-.512 1.154-1.144 1.154a1.149 1.149 0 01-1.144-1.154c0-.637.512-1.153 1.144-1.153zm-50.939-9.13a.868.868 0 01.408 1.068l-.044.1-3.352 6.476-.056 2.944a.861.861 0 01-.874.849.86.86 0 01-.837-.773l-.004-.109.055-2.966-3.453-6.409a.87.87 0 01.252-1.115l.092-.058a.854.854 0 011.106.255l.057.092 2.806 5.205 2.687-5.192a.854.854 0 011.157-.367zm42.645-.386a.86.86 0 01.852.756l.006.109v6.698c0 .625.092 1.043.28 1.4.17.32.413.565.73.735.31.167.666.259 1.166.279l.223.004h1.32c.473 0 .857.388.857.865a.863.863 0 01-.75.859l-.108.007h-1.32c-.887 0-1.578-.154-2.197-.488a3.47 3.47 0 01-1.433-1.445c-.295-.555-.448-1.167-.478-1.925l-.006-.291v-6.698c0-.478.384-.865.858-.865zm-36.574 1.73h-.351c-.62 0-1.035.092-1.39.283-.316.17-.559.416-.728.735-.19.357-.28.775-.28 1.4v3.526c0 .625.09 1.044.28 1.4.169.32.412.565.729.736.354.19.769.283 1.389.283h.35c.62 0 1.035-.092 1.39-.283.316-.17.56-.416.728-.735.19-.357.281-.776.281-1.4V19.29c0-.625-.091-1.043-.28-1.4a1.749 1.749 0 00-.73-.735c-.354-.19-.768-.283-1.388-.283zm29.457 0h-.351c-.62 0-1.035.092-1.389.283-.316.17-.56.416-.729.735-.19.357-.28.775-.28 1.4v3.526c0 .625.09 1.044.28 1.4.17.32.413.565.73.736.353.19.768.283 1.388.283h.351c.62 0 1.035-.092 1.389-.283.316-.17.56-.416.729-.735.19-.357.28-.776.28-1.4V19.29c0-.625-.09-1.043-.28-1.4a1.749 1.749 0 00-.73-.735c-.353-.19-.768-.283-1.388-.283zm22.722 0h-.322c-1.08 0-1.66.649-1.948 1.934-.143.636-.179 1.207-.179 2.068v.612h4.575l.001-.612c0-.86-.036-1.432-.179-2.068-.288-1.285-.869-1.934-1.948-1.934z" fill="#fff"/><defs><linearGradient id="paint0_linear" x1="5.715" y1="10.508" x2="5.715" y2="40" gradientUnits="userSpaceOnUse"><stop stop-color="#13BDFF"/><stop offset="1" stop-color="#3F83FF"/></linearGradient><linearGradient id="paint1_linear" x1="15.03" y1="9.362" x2="15.03" y2="39.975" gradientUnits="userSpaceOnUse"><stop stop-color="#D8EDFF"/><stop offset="1" stop-color="#8DC9FF"/></linearGradient></defs></svg>
